X:2
T:Around the world
T:The wise maid
R:Reel
O:Ireland
S:Irish Traditional Music Session Tunes
B:Irish Traditional Music Session Tunes
Z:Transcription, arrangement, chords:Mike Long
M:C|
L:1/8
K:D
"D"F2FG FEDE|FAAB AFED|"D"d2 (3(efg) "A"fdec|"D"dBAF "A"BEED|\
"D"F2FG FEDE|FAAB AFED|
"D"d2 (3(efg) "A"fdec|[1 "G"dBAG "D"FDDE:|[2 "G"dBAG "D"FDFA\
|:"D"d2AG FDFA|"D"dfaf "A"gfeg|"D"fAdf "A"eAce|
"D"dfed "A"cAA2|\
"G"B2GB "D"ADFA|"D"dfaf "A"gfed|"G"(3(Bcd) ce "(D)"dBAG|[1 "D"FA"A"EF "D"D2FA:|[2 "D"FA"A"EG "D"D2DE|]
